X: 112
T: 112. Wer nur den lieben Gott l\"a\sst walten
N: Derived from chor112.krn
C: Johann Sebastian Bach
%%abc-version 2.0
%%abcx-abcm2ps-target-version 5.9.1 (29 Sep 2008)
%%abc-creator hum2abc beta
%%abcx-conversion-date 2019/03/11 17:28:18
%%abc-edited-by Craig Stuart Sapp
%%humdrum-veritas 2643915929
%%humdrum-veritas-data 3084703172
%%
%%barnumbers 0
L: 1/4
M: C
%%staves [1 2 3 4]
V: 1 clef=treble
V: 2 clef=treble
V: 3 clef=treble-8
V: 4 clef=bass
K: D
[V:1] F [I:setbarnb 1]| 
[V:2] D/E/ | 
[V:3] B/c/ | 
[V:4] B,, | 
[V:1] Bcdc | 
[V:2] FFFF/E/ | 
[V:3] dcB^A | 
[V:4] B,^A,B,F, | 
[V:1] Bc^A2 | 
[V:2] DGF2 | 
[V:3] Be/d/c2 | 
[V:4] G,E,F,2 | 
[V:1] !fermata!F2zA | 
[V:2] !fermata!C2xF | 
[V:3] !fermata!^A2xc | 
[V:4] !fermata!F,,2zF, | 
[V:1] AGFB | 
[V:2] FEDD | 
[V:3] d=AAB | 
[V:4] B,,C,D,G,/F,/ | 
[V:1] B^A!fermata!B :|]  
[V:2] GF!fermata!F :|]  
[V:3] cc!fermata!d :|]  
[V:4] E,F,!fermata!B,, :|]  
[V:1] c [I:setbarnb 6]| 
[V:2] ^A | 
[V:3] f | 
[V:4] F, | 
[V:1] deff | 
[V:2] B=AAB | 
[V:3] fedd | 
[V:4] B,CD/C/B,/A,/ | 
[V:1] e3/d/!fermata!df | 
[V:2] BA!fermata!AA | 
[V:3] dc!fermata!fd | 
[V:4] G,A,!fermata!D,D | 
[V:1] edcB/c/ | 
[V:2] ^ABB/A/B | 
[V:3] efg/f/ f/e/ | 
[V:4] CB,E,/F,/G, | 
[V:1] dc!fermata!B |]  
[V:2] B^A!fermata!F |]  
[V:3] f3/e/!fermata!^d |]  
[V:4] F,/E,/F,!fermata!B,, |]  



